X:1
T:Good Morrow to Your Night-Cap -- Jig
R:jig
B:Ryan's Mammoth Collection
N: 91 475
Z: Contributed by Ray Davies,  ray:davies99.freeserve.co.uk
M:6/8
L:1/8
K:D
uA|\
BcB BFA | ded dAF | BcA BFF | EFA B2A |
BcB BFA | ded dAF | GBG FAF | EFA d2:|
|:z|\
vAdd d2d | gfe fdB | gfe fdB | AFA B2A |
dfb a2a | afd a2a | gfe fdB | AFA d2:|
